X:1
T:Title
%%score 1 { 2 | 3 }
L:1/8
Q:1/4=100
M:9/8
K:G
V:1 treble nm="Grand Piano, Soprano"
V:2 bass nm="Choir Pad, From the Cyber Hymnal™"
V:3 bass 
V:1
 [DG][DG][DG] [DG]3 [DG]2 [DB] | [EA][EG][CE] [B,D]3 [B,G]3 | [DB][DB][DB] [^DB]3 [DB]2 [DA] | %3
w: By~Asa~A.~Armen * * * * *|||
 [EG][EG][EG] [FA]3- [FA]3/2 z/ [FA] | [FA][FA][FA] [Fd]3 [FA]2 [GB] | [Fc][GB][FA] G3 [GB]2 G | %6
w: |||
 [FA][FA][FA] [Fd]3 [DA]2 [DB] | [^CA][CG][CE] D3- D3/2 z/ D | [DB][GB][GB] [GB]3 [DG]2 [GB] | %9
w: |||
 [Gd][Gd][Ge] [Gd]3 [GB]2 D | [DG][DG][DG] [DG]3 [DB]2 [DB] | [DB][DA][EG] [FA]3- [FA]3/2 z/ D | %12
w: |||
 [DB][GB][GB] [GB]3 [DG]2 [GB] | [Gd][Gd][Ge] [Gd]3 [GB]2 D | [CE][CE][Ec] [DB]3 [DG]2 [DB] | %15
w: |||
 [DA][DG][DF] [DG]6- | [DG]3 z3 z3 |] %17
w: ||
V:2
 B,B,B, B,3 B,2 G, | G,G,G, G,3 G,3 | G,G,G, B,3 B,2 B, | B,B,B,[K:treble] D3- D3/2 z/ D | %4
 DDD A,3 D2 D | DDD B,3 D2 B, | DDD[K:bass] A,3 F,2 G, | E,A,G, F,3- F,3/2 z/ B, | DDD D3 B,2 D | %9
 B,B,C B,3 D2 B, | B,B,B, B,3 G,2 G, | G,A,[K:treble]^C D3- D3/2 z/ B, | DDD D3[K:bass] B,2 D | %13
 B,B,C B,3 D2 B, | G,G,G, G,3 B,2 G, | CB,A, B,6- | B,3 z3 z3 |] %17
V:3
 G,G,G, G,3 .G,3 | C,C,C, G,,3 G,,3 | z3 F,3 F,2 F, | E,E,E, D,3- D,3/2 z/ D, | D,D,D, D,3 D,2 D, | %5
 D,D,D, G,3 G,2 G, | D,D,D, D,3 D,2 G,, | A,,A,,A,, D,3- D,3/2 z/ G, | G,G,G, G,3 G,2 G, | %9
 G,G,G, G,3 G,2 G, | G,G,G, G,3 z3 | z F,E, D,3- D,3/2 z/ G, | G,G,G, G,3 G,2 G, | %13
 G,G,G, G,3 G,2 G, | C,C,C, D,3 D,2 D, | D,D,D, [G,,G,]6- | [G,,G,]3 z3 z3 |] %17

